X:239
T:unattributed tune & verse
%%VWML:SBG-1-2--0
F:http://www.vwml.org/record/SBG/1/2/
Z:Original Sibelius transcriptions by M. & S. Graebe
M:3/4
I:linebreak $
K:C
V:1 treble nm="P1"
V:1
 (A/G/) | G D (3E/F/G/ | A/=B/ c A/G/ | A2 G | D2 (3(A/B/c/) | d c d/c/ |$ %6
w: As _|I was a- * *|walking _ _ down _|in Stokes|Bay I _ _|met a drowned _|
"^(1)" (A/>G/) A (3(A/B/)c/ | d c"^(1)" (B/G/) | A2 A | d c (d/c/) | (A/B/) c (3(A/B/c/) | %11
w: sai- * lor on _ the|beach as he _|lay And|as I drawed _|nigh _ him put _ _|
 d c (A/G/) |$ A2 A/G/ | G D F/G/ | A/B/ c (3(A/G/)F/ | G"^(2)" D E | D2 x |$ %17
w: me to a _|stand When I|knowed it was my|own true love by _ the|mark on his|hand|
 (3B/"^(1)"A/G/ A"^(1)" A/>B/ c"^(2)" G/F/ D D | D2 | %19
w: ||






